X:216
T:Nuages
C:D. Reinhardt - David Grisman solo
N:From "Svingin with Svend" Transcribed by Mike Stangeland
L:1/8
Q:1/4=90
M:4/4
K:G
z8 |: zA ^cd a^g =gf | "Eb9"[=fG^D][f6G6D6]e | "Cm6"[^d4G4C4] "D7"[=dFC]d de | 
(3"Gmaj7"ddd (3ddd d4 | z2 ^cd a^g =gf | "Eb9"[=fG^D][fGD] z4 ze | "Cm6"[^d4G4C4] "D7"[=dFC]d de | 
"Gmaj7"(3[dGB,][GB,][GB,] (3[GB,][GB,][GB,] (3[eAC][AC][AC] (3[AC][AC][AC] | [f3B3D3]^A/B/ ba gf | 
"B7b9"[a6c6F6] [gAE][gA^D] | [g3A3^D3]^A/B/ ba gf | "Em"[g3B3E3]"Em/Eb"^D [g3B3][gB=D] | 
z3g {^a}bg e^c | "A7"z[a3^c3G3] "Ab7"[^g2=c2F2] [gcF]"A7"[a^cG] | z2 ef ga bd' | 
"D7"z[d'2f2c2]"C#7"[^c'=fB] z3"D7"[d'^fc] | z4 a^g =gf | "Eb9"[=fG^D][fGD] z4 ze | 
"Cm6"[^d4G4C4] "D7"[=dFC]d de | (3"Gmaj7"ddd (3ddd d4 | zd' z2 d'^c' =c'b | (3"Ab9"^aaa (3aaa (3aaa (3=aa_ba/ | 
(3"Fm6"^ggg (3ggg (3ggg (3"G7"=gg{^a}b | (3"Cmaj7"ggg (3ggg (3ggg (3ggg | (3ggg (3g'g'g' (3g'g'=f' (3^d'd'f'd'/ | 
(3"Cm6"g'g'g' (3g'g'g' (3g'g'g' (3g'g'g' | (3g'g'g' (3g'g'g' g'=f' ^d'f' | (3"Gmaj7"d'd'd' (3d'd'd' (3d'd'd' (3d'd'd' | 
d'2 ^cd a^g =gf | "Eb9"[=fG^D][fGD] (3[fG][fG][fG] (3[fG][fG][fG] eC | "Cm6"[^d3G3]C "D7"[=d4F4] | 
[d8G8B,8] :| z8 | 
 

